X: 10222
T: LADY SHAFTSBURY.     a Strathspey.
Q: "Slowish"
R: strathspey
B: "Edinburgh Repository of Music" v.1 p.22 #2
F: http://digital.nls.uk/special-collections-of-printed-music/pageturner.cfm?id=87776133
Z: 2015 John Chambers <jc:trillian.mit.edu>
M: C
L: 1/8
K: D
f/e/ |\
d>AF>A defb | a>fe>d cee f/e/ |\
d>AF>A d>efb | a<f e<f d3 :|\
|:\
a |\
d'>c'ba {c'}d'2d>b | afed ceea |
d'c'ba {c'}d'2db | a<f e>f d3a |\
d'>c'ba abc'd' | e'eee e>fgb |\
a>baf e>def | d/e/f/e/ dA d2 d :|

%%sep 2 1 500
%%sep 1 1 500

